src/images_karasa_jaga_svg/cmd/32/strikeout.svg

<svg height="32" viewBox="0 0 8.4666665 8.466667" width="32" xmlns="http://www.w3.org/2000/svg" xmlns:xlink="http://www.w3.org/1999/xlink"><linearGradient id="a" gradientUnits="userSpaceOnUse" x1="15.875" x2="15.875" y1="2.116668" y2="12.700001"><stop offset="0" stop-color="#3b3e22"/><stop offset="1" stop-color="#454545" stop-opacity="0"/></linearGradient><linearGradient id="b" gradientUnits="userSpaceOnUse" x1="47.886167" x2="47.886167" y1="58.765144" y2="-61.234852"><stop offset="0" stop-color="#555"/><stop offset="1"/></linearGradient><g transform="matrix(.25 0 0 .25 0 -65.78333)"><path d="m60.849609 15.070312c-6.533333 0-12.226744 2.238751-17.080078 6.71875-4.76 4.386667-7.138672 10.12737-7.138672 17.220704 0 5.32 1.539141 9.986666 4.619141 14 .801918 1.044923 1.647082 2.040215 2.53125 2.990234h26.064453c-.203203-.110102-.389954-.21993-.595703-.330078-7.373334-4.106667-12.64698-7.839219-15.820312-11.199219-3.173334-3.36-4.759766-6.907291-4.759766-10.640625 0-3.826667 1.35388-6.954193 4.060547-9.380859 2.706667-2.426667 6.206666-3.638672 10.5-3.638672 5.6 0 10.686432 1.958906 15.259765 5.878906 4.666667 3.92 8.119375 9.987838 10.359375 18.201172h3.5l-3.080078-29.820313h-2.939453c-.56 3.173334-2.053802 4.759766-4.480469 4.759766-.933333 0-3.686432-.794193-8.259765-2.380859-4.573334-1.586667-8.820234-2.378907-12.740235-2.378907zm7.337891 56.929688c3.229518 2.080701 6.060588 4.474064 8.482422 7.189453 3.08 3.36 4.61914 7.234427 4.61914 11.621094 0 4.666667-1.586432 8.491852-4.759765 11.478513-3.173334 2.89334-7.325651 4.3418-12.458985 4.3418-6.253332 0-11.6669-2.00816-16.240234-6.02148-4.573333-4.013343-8.587682-10.266437-12.041016-18.759771h-3.21875l4.199219 29.679691h3.080078c.09333-1.30667.513099-2.37875 1.259766-3.21875.746667-.93334 1.63349-1.40039 2.660156-1.40039 1.12 0 4.060313.79224 8.820313 2.3789 4.853333 1.58667 9.61263 2.38086 14.279297 2.38086 8.026667 0 14.794114-2.42596 20.300781-7.2793 5.506667-4.946657 8.259764-11.0145 8.259766-18.201167 0-5.13456-1.626099-9.863149-4.859376-14.189453z" fill="url(#b)" transform="matrix(.26458333 0 0 .26458333 0 263.13332)"/><path d="m60.849609 17.005859c-6.091891 0-11.232398 2.014816-15.767578 6.201172a1.9336364 1.9336364 0 0 1 -.0078.0078c-4.377721 4.034381-6.511719 9.135684-6.511719 15.796875 0 4.946608 1.393366 9.135601 4.222656 12.822265 1.14632 1.49368 2.379586 2.879645 3.697266 4.166016h19.441394c-6.237292-3.629556-10.858003-6.987843-13.896484-10.205065-3.418239-3.619314-5.292969-7.683206-5.292969-11.964844 0-4.282507 1.619896-8.057957 4.703125-10.822266 3.085909-2.76665 7.137531-4.134765 11.794922-4.134765 6.051912 0 11.644869 2.176368 16.513672 6.349609 4.728472 3.978369 8.087088 10.053871 10.402344 17.730469h.05078l-2.671874-25.947266c-.000333.000983-.0075-.000982-.0078 0-.356644 1.05566-.602448 2.198078-1.320312 2.960938-1.104938 1.174148-2.714541 1.800781-4.34961 1.800781-1.017467 0-1.866553-.258054-3.298828-.671875-1.432274-.413783-3.290297-1.024357-5.595703-1.824219-4.410901-1.53033-8.445329-2.265625-12.105469-2.265625z" fill="url(#a)" transform="matrix(.26458333 0 0 .26458333 0 263.13332)"/><rect fill="#0b0b0b" height="2.116656" rx=".149961" ry="0" width="29.633333" x="2.116667" y="279.00833"/></g></svg>

<?xml version="1.0" encoding="UTF-8" standalone="no"?>
<!-- Created with Inkscape (http://www.inkscape.org/) -->

<svg
   xmlns:dc="http://purl.org/dc/elements/1.1/"
   xmlns:cc="http://creativecommons.org/ns#"
   xmlns:rdf="http://www.w3.org/1999/02/22-rdf-syntax-ns#"
   xmlns:svg="http://www.w3.org/2000/svg"
   xmlns="http://www.w3.org/2000/svg"
   xmlns:xlink="http://www.w3.org/1999/xlink"
   xmlns:sodipodi="http://sodipodi.sourceforge.net/DTD/sodipodi-0.dtd"
   xmlns:inkscape="http://www.inkscape.org/namespaces/inkscape"
   width="128"
   height="128"
   viewBox="0 0 33.866666 33.866668"
   version="1.1"
   id="svg3248"
   inkscape:version="0.92.2 (unknown)"
   sodipodi:docname="strikeout.svg"
   inkscape:export-filename="/home/rizmut/Dokumen/Rizmut/Github/libreoffice-style-karasa-jaga/build/images_karasa_jaga/cmd/32/strikeout.png"
   inkscape:export-xdpi="24"
   inkscape:export-ydpi="24">
  <defs
     id="defs3242">
    <linearGradient
       inkscape:collect="always"
       xlink:href="#b"
       id="linearGradient4629"
       x1="60"
       y1="8.0000038"
       x2="60"
       y2="48.000004"
       gradientUnits="userSpaceOnUse" />
    <linearGradient
       id="a"
       gradientUnits="userSpaceOnUse"
       x1="18.981823"
       x2="20.202982"
       y1="294.72055"
       y2="266.63391"
       gradientTransform="translate(-12.113833,-69.234856)">
      <stop
         offset="0"
         stop-color="#555"
         id="stop2" />
      <stop
         offset="1"
         id="stop4" />
    </linearGradient>
    <linearGradient
       id="linearGradient1806"
       gradientUnits="userSpaceOnUse"
       x1="18.981823"
       x2="20.202982"
       y1="294.72055"
       y2="266.63391"
       gradientTransform="translate(3.7611663,-263.57652)">
      <stop
         offset="0"
         stop-color="#555"
         id="stop1802" />
      <stop
         offset="1"
         id="stop1804" />
    </linearGradient>
    <linearGradient
       id="b"
       gradientUnits="userSpaceOnUse"
       x1="35.404884"
       x2="54.657333"
       y1="7.3243251"
       y2="81.814293"
       gradientTransform="scale(0.26458333)">
      <stop
         offset="0"
         stop-color="#3b3e22"
         id="stop7" />
      <stop
         offset="1"
         stop-color="#454545"
         stop-opacity="0"
         id="stop9" />
    </linearGradient>
    <linearGradient
       inkscape:collect="always"
       xlink:href="#a"
       id="linearGradient856"
       x1="60"
       y1="128"
       x2="60"
       y2="8.0000038"
       gradientUnits="userSpaceOnUse" />
  </defs>
  <sodipodi:namedview
     id="base"
     pagecolor="#ffffff"
     bordercolor="#666666"
     borderopacity="1.0"
     inkscape:pageopacity="0.0"
     inkscape:pageshadow="2"
     inkscape:zoom="5.6"
     inkscape:cx="89.850239"
     inkscape:cy="67.813764"
     inkscape:document-units="mm"
     inkscape:current-layer="layer1"
     showgrid="true"
     units="px"
     inkscape:window-width="1366"
     inkscape:window-height="706"
     inkscape:window-x="0"
     inkscape:window-y="0"
     inkscape:window-maximized="1">
    <inkscape:grid
       type="xygrid"
       id="grid823"
       spacingx="1.0583333"
       spacingy="1.0583333"
       empspacing="1" />
  </sodipodi:namedview>
  <metadata
     id="metadata3245">
    <rdf:RDF>
      <cc:Work
         rdf:about="">
        <dc:format>image/svg+xml</dc:format>
        <dc:type
           rdf:resource="http://purl.org/dc/dcmitype/StillImage" />
        <dc:title />
      </cc:Work>
    </rdf:RDF>
  </metadata>
  <g
     inkscape:label="Layer 1"
     inkscape:groupmode="layer"
     id="layer1"
     transform="translate(0,-263.13332)">
    <path
       style="font-style:normal;font-variant:normal;font-weight:bold;font-stretch:normal;font-size:37.10869598px;line-height:1.25;font-family:FreeSerif;-inkscape-font-specification:'FreeSerif, Bold';font-variant-ligatures:normal;font-variant-caps:normal;font-variant-numeric:normal;font-feature-settings:normal;text-align:start;letter-spacing:0px;word-spacing:0px;writing-mode:lr-tb;text-anchor:start;fill:url(#linearGradient856);fill-opacity:1;stroke:none;stroke-width:3.50649953"
       d="M 60.849609 15.070312 C 54.316276 15.070312 48.622865 17.309063 43.769531 21.789062 C 39.009531 26.175729 36.630859 31.916432 36.630859 39.009766 C 36.630859 44.329766 38.17 48.996432 41.25 53.009766 C 42.051918 54.054689 42.897082 55.049981 43.78125 56 L 69.845703 56 C 69.6425 55.889898 69.455749 55.78007 69.25 55.669922 C 61.876666 51.563255 56.60302 47.830703 53.429688 44.470703 C 50.256354 41.110703 48.669922 37.563412 48.669922 33.830078 C 48.669922 30.003411 50.023802 26.875885 52.730469 24.449219 C 55.437136 22.022552 58.937135 20.810547 63.230469 20.810547 C 68.830469 20.810547 73.916901 22.769453 78.490234 26.689453 C 83.156901 30.609453 86.609609 36.677291 88.849609 44.890625 L 92.349609 44.890625 L 89.269531 15.070312 L 86.330078 15.070312 C 85.770078 18.243646 84.276276 19.830078 81.849609 19.830078 C 80.916276 19.830078 78.163177 19.035885 73.589844 17.449219 C 69.01651 15.862552 64.76961 15.070312 60.849609 15.070312 z M 68.1875 72 C 71.417018 74.080701 74.248088 76.474064 76.669922 79.189453 C 79.749922 82.549453 81.289062 86.42388 81.289062 90.810547 C 81.289062 95.477214 79.70263 99.302399 76.529297 102.28906 C 73.355963 105.1824 69.203646 106.63086 64.070312 106.63086 C 57.81698 106.63086 52.403412 104.6227 47.830078 100.60938 C 43.256745 96.596037 39.242396 90.342943 35.789062 81.849609 L 32.570312 81.849609 L 36.769531 111.5293 L 39.849609 111.5293 C 39.942943 110.22263 40.362708 109.15055 41.109375 108.31055 C 41.856042 107.37721 42.742865 106.91016 43.769531 106.91016 C 44.889531 106.91016 47.829844 107.7024 52.589844 109.28906 C 57.443177 110.87573 62.202474 111.66992 66.869141 111.66992 C 74.895808 111.66992 81.663255 109.24396 87.169922 104.39062 C 92.676589 99.443963 95.429686 93.37612 95.429688 86.189453 C 95.429688 81.054893 93.803589 76.326304 90.570312 72 L 68.1875 72 z "
       transform="matrix(0.26458333,0,0,0.26458333,0,263.13332)"
       id="text3806" />
    <path
       style="opacity:1;fill:url(#linearGradient4629);fill-opacity:1;stroke:none;stroke-width:0.99999994;stroke-opacity:1"
       d="M 60.849609 17.005859 C 54.757718 17.005859 49.617211 19.020675 45.082031 23.207031 A 1.9336364 1.9336364 0 0 1 45.074219 23.214844 C 40.696498 27.249225 38.5625 32.350528 38.5625 39.011719 C 38.5625 43.958327 39.955866 48.14732 42.785156 51.833984 C 43.931476 53.327664 45.164742 54.713629 46.482422 56 L 65.923828 56 C 59.686536 52.370431 55.065825 49.012144 52.027344 45.794922 C 48.609105 42.175608 46.734375 38.111716 46.734375 33.830078 C 46.734375 29.547571 48.354271 25.772121 51.4375 23.007812 C 54.523409 20.241162 58.575031 18.873047 63.232422 18.873047 C 69.284334 18.873047 74.877291 21.049415 79.746094 25.222656 C 84.474566 29.201025 87.833182 35.276527 90.148438 42.953125 L 90.199219 42.953125 L 87.527344 17.005859 C 87.527011 17.006842 87.519864 17.004877 87.519531 17.005859 C 87.162887 18.061519 86.917083 19.203937 86.199219 19.966797 C 85.094281 21.140945 83.484678 21.767578 81.849609 21.767578 C 80.832142 21.767578 79.983056 21.509524 78.550781 21.095703 C 77.118507 20.68192 75.260484 20.071346 72.955078 19.271484 C 68.544177 17.741154 64.509749 17.005859 60.849609 17.005859 z "
       transform="matrix(0.26458333,0,0,0.26458333,0,263.13332)"
       id="path4610" />
    <rect
       style="opacity:1;fill:#0b0b0b;fill-opacity:1;stroke:none;stroke-width:0.20463981;stroke-opacity:1"
       id="rect3931"
       width="29.633333"
       height="2.1166558"
       x="2.1166666"
       y="279.00833"
       rx="0.14996053"
       ry="0" />
  </g>
</svg>
